X: 11686
T: Eimear's Shuffle
R: jig
M: 6/8
K: Emajor
B2 g fec|e2 g age|B2 g fec|efc ecA|
B2 g fec|efg aga|b2g eBc|efg f2 e:|
~c3 cBa|g2 e fgB|cBe Bc/d/e|agb geB|
~c3 cBa|g2 e fga|b2g eBc|efg f2 e:|

